icons/flow.svg

<svg height="2500" preserveAspectRatio="xMinYMin meet" viewBox="0 0 256 317" width="2019" xmlns="http://www.w3.org/2000/svg" xmlns:xlink="http://www.w3.org/1999/xlink"><linearGradient id="a" x1="16.107%" x2="72.709%" y1="58.187%" y2="72.89%"><stop offset="0" stop-color="#ffd441"/><stop offset="1" stop-color="#ffb047"/></linearGradient><linearGradient id="b" x1="70.213%" y1="65.797%" y2="0%"><stop offset="0" stop-color="#ffd754"/><stop offset="1" stop-color="#ffb532"/></linearGradient><linearGradient id="c" x1="22.178%" x2="22.178%" y1="66.138%" y2="9.316%"><stop offset="0" stop-color="#ffd642"/><stop offset="0" stop-color="#ffd441"/><stop offset="1" stop-color="#ffb532"/></linearGradient><linearGradient id="d" x1="88.953%" x2="12.579%" y1="24.298%" y2="6.966%"><stop offset="0" stop-color="#ffd441"/><stop offset="1" stop-color="#ffa829"/></linearGradient><g fill-opacity=".7"><path d="m211.69 309.979v-81.859h-81.201l81.2 81.858" fill="#ffdf51"/><path d="m220.801 263.566v-88.533h-87.821l87.822 88.533" fill="#ff8900"/><path d="m167.467 228.118v88.534h87.822z" fill="url(#a)"/><path d="m202.444 180.962v-70.027h-69.467z" fill="#ffdf4f"/></g><path d="m235.424 164.267v-88.534h-87.822z" fill="url(#b)" fill-opacity=".8"/><path d="m85.735 0v88.533h87.822z" fill="url(#c)" fill-opacity=".8"/><path d="m106.334 138.667v-88.534h-106.199l87.443 88.552z" fill="url(#d)" fill-opacity=".88"/><path d="m106.334 316.175v-107.108h-106.199z" fill="#ffb700" fill-opacity=".7"/><path d="m106.357 227.467v-88.534h-87.822z" fill="#ffb700" fill-opacity=".5"/><path d="m132.976 110.933v88.534h87.823z" fill="#ffcd25" fill-opacity=".7"/><path d="m106.135 120.9v-88.535h-87.822l87.822 88.533m24.354 107.22v88.534h87.822z" fill="#ff8900" fill-opacity=".7"/></svg>

<svg width="2019" height="2500" viewBox="0 0 256 317" xmlns="http://www.w3.org/2000/svg" preserveAspectRatio="xMinYMin meet"><defs><linearGradient x1="16.107%" y1="58.187%" x2="72.709%" y2="72.89%" id="a"><stop stop-color="#FFD441" offset="0%"/><stop stop-color="#FFB047" offset="100%"/></linearGradient><linearGradient x1="70.213%" y1="65.797%" y2="0%" id="b"><stop stop-color="#FFD754" offset="0%"/><stop stop-color="#FFB532" offset="100%"/></linearGradient><linearGradient x1="22.178%" y1="66.138%" x2="22.178%" y2="9.316%" id="c"><stop stop-color="#FFD642" offset="0%"/><stop stop-color="#FFD441" offset="0%"/><stop stop-color="#FFB532" offset="100%"/></linearGradient><linearGradient x1="88.953%" y1="24.298%" x2="12.579%" y2="6.966%" id="d"><stop stop-color="#FFD441" offset="0%"/><stop stop-color="#FFA829" offset="100%"/></linearGradient></defs><path d="M211.69 309.979V228.12h-81.201l81.2 81.858" fill-opacity=".7" fill="#FFDF51"/><path d="M220.801 263.566v-88.533H132.98l87.822 88.533" fill-opacity=".7" fill="#FF8900"/><path d="M167.467 228.118v88.534h87.822l-87.822-88.534" fill-opacity=".7" fill="url(#a)"/><path d="M202.444 180.962v-70.027h-69.467l69.467 70.027" fill-opacity=".7" fill="#FFDF4F"/><path d="M235.424 164.267V75.733h-87.822l87.822 88.534" fill-opacity=".8" fill="url(#b)"/><path d="M85.735 0v88.533h87.822L85.735 0" fill-opacity=".8" fill="url(#c)"/><path d="M106.334 138.667V50.133H.135l87.443 88.552 18.756-.018" fill-opacity=".88" fill="url(#d)"/><path d="M106.334 316.175V209.067H.135l106.199 107.108" fill-opacity=".7" fill="#FFB700"/><path d="M106.357 227.467v-88.534H18.535l87.822 88.534" fill-opacity=".5" fill="#FFB700"/><path d="M132.976 110.933v88.534h87.823l-87.823-88.534" fill-opacity=".7" fill="#FFCD25"/><path d="M106.135 120.9V32.365H18.313l87.822 88.533M130.489 228.118v88.534h87.822l-87.822-88.534" fill-opacity=".7" fill="#FF8900"/></svg>
